X: 1
T: THE BOSTON BOYS' -- REEL
B: Ryan's Mammoth Collection of Fiddle Tunes
R: reel
M: C|
L: 1/8
Z: Contributed 20010907020156 by John Chambers jmchambers:rcn.net
K: C
 VCECE GAGE | Dddc (dc)Ac | GcEc GAca | gedg ecc2 |
| CECE GAGE | Dddc (dc)Ac | GcEc GAca | gedg ecc2 :|
|: c2(ec) gcec | cdea gede | c2(ec) gcec | GABc (ec)c2 |
|  c2(ec) gcec | cdea gedg | cdcA   GAca | gedg  ecc2 :|
